X:1
T:Minuet. SenH.136, A
T:Minuet. SenH.136, A
T:in Hand C
C:in Hand C
L:1/8
Q:1/4=100
M:3/4
K:G
V:1 treble 
V:1
 fe/f/ | abagfe | d4 (f/g/a) | b2 a2 g2 | f4 g2 | fedefg | fedefg | a2 abgb | a4 || a/b/c' | %10
 d'2 (d'c')d'a | b2 B2 b2 | e'2 (e'd')e'b | c'2 c'bc'a | d'2 (d'c')d'a | b2 babg | g2 bagf | %17
 e4 gf/g/ | a2 aaaa | a2 bc' d'2 | f2 d'c' d'2 | e2 d'c' d'2 | d2 d'c'd'e' | d'c'bagf | %24
 (ba) e2 d2 | d6 |] %26

